X:75
T:Painters Sett Of Quadrilles No.5. Le4.075, The
B:L.Leadley MS#4 c1850
Z:Village Music Project, 2016 Steve Mansfield
M:2/4
L:1/8
Q:2/4=60
N:* !f! added by transbriber for abc2midi
N:** e3 in Mss
K:A
e/d/ !segno! |: ceag | !>(!bag!>)!d | !>(!fdc!>)!A | "*"!f! {c}B/A/B/c/ Be/d/ |
ceag | !>(!bag!>)!d | !>(!fdc!>)!A | "*"!f! {c}B/A/B/c/ A H ||
A | GA ^AB | AB ^Bc | dfec | {c}B/A/B/c/ Bz |
GA ^AB | AB ^Bc | Baf^d | "**"!>(!(e2d)!>)! !segno! ||
[K:D]
"^Clarinet. solo" "*"!f!B/c/ | d2 ff | d2 ff | dd/e/ fd | b/a/^g/a/ ee/=g/ |
ff dd | B^a/b/ =a/g/f/e/ | db/a/ cb/a/ | dfd !D.C.! |]

